tools/download-figma-icons/icons/outlined-medium/double-person.svg

<svg width="24" height="24" viewBox="0 0 24 24" fill="none" xmlns="http://www.w3.org/2000/svg">
<path d="M12 0C10.3425 0 9 1.3425 9 3C9 4.6575 10.3425 6 12 6C13.6575 6 15 4.6575 15 3C15 1.3425 13.6575 0 12 0ZM12 4.5C11.175 4.5 10.5 3.825 10.5 3C10.5 2.175 11.175 1.5 12 1.5C12.825 1.5 13.5 2.175 13.5 3C13.5 3.825 12.825 4.5 12 4.5Z" fill="black"/>
<path d="M8.1 8.25H11.25V6.75H8.1C6.9375 6.75 6 7.6875 6 8.85V15.9C6 17.04 6.915 17.9775 8.0475 18L8.64 22.6875C8.73 23.4375 9.3675 24 10.125 24H11.25V22.5H10.125L9.375 16.5H8.1C7.77 16.5 7.5 16.23 7.5 15.9V8.85C7.5 8.52 7.77 8.25 8.1 8.25Z" fill="black"/>
<path d="M18.7125 17.6625L16.5975 8.49C16.3575 7.47 15.4575 6.75 14.4075 6.75H12.75V8.25H14.4075C14.7525 8.25 15.0525 8.49 15.135 8.8275L17.25 18H14.4L13.875 22.5H12.75V24H13.875C14.6325 24 15.2775 23.43 15.3675 22.6725L15.735 19.5H17.25C17.7075 19.5 18.1425 19.29 18.4275 18.9375C18.705 18.5775 18.8175 18.105 18.7125 17.6625Z" fill="black"/>
</svg>

<svg xmlns="http://www.w3.org/2000/svg" width="24" height="24" fill="none" viewBox="0 0 24 24"><path fill="currentColor" d="M12 0a3 3 0 1 0 0 6 3 3 0 1 0 0-6m0 4.5c-.825 0-1.5-.675-1.5-1.5s.675-1.5 1.5-1.5 1.5.675 1.5 1.5-.675 1.5-1.5 1.5M8.1 8.25h3.15v-1.5H8.1c-1.162 0-2.1.938-2.1 2.1v7.05A2.1 2.1 0 0 0 8.047 18l.593 4.688c.09.75.727 1.312 1.485 1.312h1.125v-1.5h-1.125l-.75-6H8.1c-.33 0-.6-.27-.6-.6V8.85c0-.33.27-.6.6-.6m10.613 9.413L16.597 8.49a2.246 2.246 0 0 0-2.19-1.74H12.75v1.5h1.658c.345 0 .645.24.727.578L17.25 18H14.4l-.525 4.5H12.75V24h1.125c.758 0 1.402-.57 1.492-1.328l.368-3.172h1.515c.457 0 .892-.21 1.177-.562.278-.36.39-.833.285-1.275"/></svg>
